elusive/graph.svg

<?xml version="1.0" encoding="UTF-8" standalone="no"?>
<!-- Generator: IcoMoon.io -->

<svg
   xmlns:dc="http://purl.org/dc/elements/1.1/"
   xmlns:cc="http://creativecommons.org/ns#"
   xmlns:rdf="http://www.w3.org/1999/02/22-rdf-syntax-ns#"
   xmlns:svg="http://www.w3.org/2000/svg"
   xmlns="http://www.w3.org/2000/svg"
   xmlns:sodipodi="http://sodipodi.sourceforge.net/DTD/sodipodi-0.dtd"
   xmlns:inkscape="http://www.inkscape.org/namespaces/inkscape"
   id="svg2"
   version="1.1"
   data-tags="remove-circle, cancel, close, remove, delete"
   height="1200"
   width="1200"
   data-du=""
   viewBox="0 0 1200 1200"
   inkscape:version="0.48.4 r9939"
   sodipodi:docname="graph.svg">
  <defs
     id="defs32" />
  <sodipodi:namedview
     pagecolor="#ffffff"
     bordercolor="#666666"
     borderopacity="1"
     objecttolerance="10"
     gridtolerance="10"
     guidetolerance="10"
     inkscape:pageopacity="0"
     inkscape:pageshadow="2"
     inkscape:window-width="1535"
     inkscape:window-height="876"
     id="namedview30"
     showgrid="false"
     inkscape:zoom="0.26339286"
     inkscape:cx="440.30408"
     inkscape:cy="313.63811"
     inkscape:window-x="65"
     inkscape:window-y="24"
     inkscape:window-maximized="1"
     inkscape:current-layer="svg2" />
  <metadata
     id="metadata62">
    <rdf:RDF>
      <cc:Work
         rdf:about="">
        <dc:format>image/svg+xml</dc:format>
        <dc:type
           rdf:resource="http://purl.org/dc/dcmitype/StillImage" />
        <dc:title />
      </cc:Work>
    </rdf:RDF>
  </metadata>
  <path
     id="path10556"
     d="m 0,145.53237 0,908.93523 1200,0 0,-908.93523 -1200,0 z m 147.50976,146.33766 904.98044,0 0,616.25998 -904.98044,0 0,-616.25998 z m 769.92187,48.77951 -154.24803,267.48047 -72.36329,-150.8789 -45.41016,-94.77563 -56.68945,88.40344 -126.7821,197.46094 -52.07532,-54.71203 -37.86609,-39.77039 -42.11438,35.2296 -148.90124,124.29188 75.07312,89.94141 106.78711,-89.13563 65.69836,68.99392 51.48913,54.05296 40.2832,-62.76868 110.30274,-171.8993 75,156.51845 48.04688,100.26843 55.51757,-96.38672 209.76562,-363.79382 -101.51367,-58.5204 z"
     inkscape:connector-curvature="0" />
</svg>

<?xml version="1.0" encoding="utf-8"?>
<!-- Generator: Adobe Illustrator 16.0.0, SVG Export Plug-In . SVG Version: 6.00 Build 0)  -->
<!DOCTYPE svg PUBLIC "-//W3C//DTD SVG 1.1//EN" "http://www.w3.org/Graphics/SVG/1.1/DTD/svg11.dtd">
<svg version="1.1"
	 id="svg2" xmlns:dc="http://purl.org/dc/elements/1.1/" xmlns:cc="http://creativecommons.org/ns#" xmlns:rdf="http://www.w3.org/1999/02/22-rdf-syntax-ns#" xmlns:svg="http://www.w3.org/2000/svg" xmlns:sodipodi="http://sodipodi.sourceforge.net/DTD/sodipodi-0.dtd" xmlns:inkscape="http://www.inkscape.org/namespaces/inkscape" sodipodi:docname="graph.svg" inkscape:version="0.48.4 r9939"
	 xmlns="http://www.w3.org/2000/svg" xmlns:xlink="http://www.w3.org/1999/xlink" x="0px" y="0px" width="1200px" height="1200px"
	 viewBox="0 0 1200 1200" enable-background="new 0 0 1200 1200" xml:space="preserve">
<sodipodi:namedview  inkscape:cy="313.63811" inkscape:cx="440.30408" inkscape:zoom="0.26339286" showgrid="false" id="namedview30" guidetolerance="10" gridtolerance="10" objecttolerance="10" borderopacity="1" bordercolor="#666666" pagecolor="#ffffff" inkscape:current-layer="svg2" inkscape:window-maximized="1" inkscape:window-y="24" inkscape:window-height="876" inkscape:window-width="1535" inkscape:pageshadow="2" inkscape:pageopacity="0" inkscape:window-x="65">
	</sodipodi:namedview>
<path id="path10556" inkscape:connector-curvature="0" d="M0,145.532v908.936h1200V145.532H0L0,145.532z M147.51,291.87h904.98
	v616.26H147.51V291.87L147.51,291.87z M917.432,340.649L763.184,608.13L690.82,457.251l-45.41-94.775l-56.689,88.403L461.938,648.34
	l-52.075-54.712l-37.866-39.771l-42.114,35.229L180.981,713.379l75.073,89.941l106.787-89.136l65.698,68.994l51.489,54.053
	l40.283-62.769l110.303-171.899l75,156.519l48.047,100.269l55.518-96.387l209.766-363.794L917.432,340.649z"/>
</svg>
